Newaita-dark/apps/48/gnome-subtitles.svg

<svg height="48" viewBox="0 0 48 48" width="48" xmlns="http://www.w3.org/2000/svg" xmlns:xlink="http://www.w3.org/1999/xlink"><linearGradient id="a"><stop offset="0" stop-opacity=".313726"/><stop offset=".222222" stop-opacity=".27451"/><stop offset="1" stop-opacity="0"/></linearGradient><radialGradient id="b" cx="450.908936" cy="189.579361" gradientTransform="matrix(-.00000016 -.117199 .126575 -.00000015 -15.26378 97.377562)" gradientUnits="userSpaceOnUse" r="21.166656" xlink:href="#a"/><radialGradient id="c" cx="450.908936" cy="189.579361" gradientTransform="matrix(.00000016 .117199 -.126575 .00000015 33.323307 -9.306655)" gradientUnits="userSpaceOnUse" r="21.166656" xlink:href="#a"/><radialGradient id="d" cx="450.908936" cy="189.579361" gradientTransform="matrix(.00000016 -.117199 -.126575 -.00000015 33.323307 97.377562)" gradientUnits="userSpaceOnUse" r="21.166656" xlink:href="#a"/><radialGradient id="e" cx="450.908936" cy="189.579361" gradientTransform="matrix(-.00000016 .117199 .126575 .00000015 -15.263778 -9.306656)" gradientUnits="userSpaceOnUse" r="21.166656" xlink:href="#a"/><linearGradient id="f" gradientTransform="matrix(-.00331698 0 0 .093759 10.458352 22.142743)" gradientUnits="userSpaceOnUse" x1="255.323059" x2="255.323044" y1="233.5" y2="254.666656"><stop offset="0" stop-opacity=".27451"/><stop offset="1" stop-opacity="0"/></linearGradient><linearGradient id="g"><stop offset="0" stop-color="#424242"/><stop offset="1" stop-color="#616161"/></linearGradient><linearGradient id="h" gradientUnits="userSpaceOnUse" x1="370.416656" x2="370.416656" xlink:href="#g" y1="254.666672" y2="-168.666656"/><linearGradient id="i" gradientUnits="userSpaceOnUse" x1="23.814786" x2="23.814786" xlink:href="#g" y1="44.03546750005" y2="4.34415649995"/><linearGradient id="j"><stop offset="0" stop-color="#42a5f5"/><stop offset="1" stop-color="#64b5f6"/></linearGradient><linearGradient id="k" gradientUnits="userSpaceOnUse" x1="23.814786" x2="23.814786" xlink:href="#j" y1="13.27470200002" y2="10.2978545001"/><linearGradient id="l" gradientUnits="userSpaceOnUse" x1="23.814786" x2="23.814786" xlink:href="#j" y1="20.34471300002" y2="17.3678655001"/><linearGradient id="m" gradientUnits="userSpaceOnUse" x1="23.814786" x2="23.814786" xlink:href="#j" y1="27.29071100002" y2="24.3138635001"/><path d="m8.433594 44.035156h-2.378906v-1.984375h2.378906zm0 0" fill="url(#b)"/><path d="m9.625 44.035156h2.382812v1.984375h-2.382812zm0 0" fill="url(#c)"/><path d="m9.625 44.035156h2.382812v-1.984375h-2.382812zm0 0" fill="url(#d)"/><path d="m8.433594 44.035156h-2.378906v1.984375h2.378906zm0 0" fill="url(#e)"/><path d="m9.625 44.035156h-1.191406v1.984375h1.191406zm0 0" fill="url(#f)"/><path d="m306.935867 138.341258c-9.624081 0-14.206976 11.873866-7.040994 18.28992l105.823228 95.240905c6.749355 6.082752 17.539991 1.291543 17.539991-7.790923v-95.240905c0-5.791114-4.707883-10.498997-10.498997-10.498997zm0 0" fill="url(#h)" stroke="#212121" stroke-linecap="round" stroke-linejoin="round" stroke-width="3" transform="matrix(-.093759 0 0 .093759 47.629548 20.158175)"/><path d="m19.753906 33.714844c.160156.363281.105469.816406-.242187 1.128906l-9.921875 8.929688c-.632813.570312-1.644532.121093-1.644532-.730469v-.800781c0 .851562 1.011719 1.300781 1.644532.730468l9.921875-8.929687c.109375-.097657.1875-.210938.242187-.328125zm0 0" fill-opacity=".235294"/><path d="m18.113281 36.097656-.828125.742188h-9.347656v-.742188zm0 0" fill-opacity=".235294"/><path d="m6.945312 4.34375h33.738282c1.644531 0 2.976562 1.332031 2.976562 2.976562v25.800782c0 1.644531-1.332031 2.976562-2.976562 2.976562h-33.738282c-1.644531 0-2.976562-1.332031-2.976562-2.976562v-25.800782c0-1.644531 1.332031-2.976562 2.976562-2.976562zm0 0" fill="url(#i)"/><path d="m6.945312 4.378906c-1.648437 0-2.976562 1.328125-2.976562 2.976563v.480469c0-1.652344 1.328125-2.976563 2.976562-2.976563h33.738282c1.648437 0 2.976562 1.324219 2.976562 2.976563v-.480469c0-1.648438-1.328125-2.976563-2.976562-2.976563zm0 0" fill="#fff" fill-opacity=".313726"/><path d="m3.96875 32.707031v.414063c0 1.648437 1.328125 2.976562 2.976562 2.976562h33.738282c1.648437 0 2.976562-1.328125 2.976562-2.976562v-.414063c0 1.648438-1.328125 2.976563-2.976562 2.976563h-33.738282c-1.648437 0-2.976562-1.328125-2.976562-2.976563zm0 0" fill-opacity=".235294"/><path d="m74.076259-168.671091h359.840637c17.539992 0 31.746969 14.206977 31.746969 31.746968v275.182055c0 17.539992-14.206977 31.746969-31.746969 31.746969h-359.840637c-17.539991 0-31.746968-14.206977-31.746968-31.746969v-275.182055c0-17.539991 14.206977-31.746968 31.746968-31.746968zm0 0" fill="none" stroke="#212121" stroke-linecap="round" stroke-linejoin="round" stroke-width="3" transform="matrix(.093759 0 0 .093759 0 20.158175)"/><path d="m11.410156 10.296875h24.808594c.820312 0 1.488281.667969 1.488281 1.488281 0 .824219-.667969 1.488282-1.488281 1.488282h-24.808594c-.820312 0-1.488281-.664063-1.488281-1.488282 0-.820312.667969-1.488281 1.488281-1.488281zm0 0" fill="url(#k)"/><path d="m11.410156 10.296875c-.824218 0-1.488281.664063-1.488281 1.488281 0 .128906.015625.253906.046875.375.164062-.644531.746094-1.117187 1.441406-1.117187h24.808594c.695312 0 1.277344.472656 1.441406 1.117187.03125-.121094.046875-.246094.046875-.375 0-.824218-.664062-1.488281-1.488281-1.488281zm0 0" fill="#fff" fill-opacity=".392157"/><path d="m11.410156 14.019531c-.824218 0-1.488281-.664062-1.488281-1.488281 0-.128906.015625-.253906.046875-.371094.164062.640625.746094 1.113282 1.441406 1.113282h24.808594c.695312 0 1.277344-.472657 1.441406-1.113282.03125.117188.046875.242188.046875.371094 0 .824219-.664062 1.488281-1.488281 1.488281zm0 0" fill-opacity=".235294"/><path d="m121.696712-105.177154h264.599732c8.749164 0 15.873484 7.124319 15.873484 15.873484 0 8.790827-7.12432 15.873484-15.873484 15.873484h-264.599732c-8.749165 0-15.873484-7.082657-15.873484-15.873484 0-8.749165 7.124319-15.873484 15.873484-15.873484zm0 0" fill="none" stroke="#212121" stroke-linecap="round" stroke-linejoin="round" stroke-width="3" transform="matrix(.093759 0 0 .093759 0 20.158175)"/><path d="m11.410156 17.367188h24.808594c.820312 0 1.488281.667968 1.488281 1.488281 0 .824219-.667969 1.488281-1.488281 1.488281h-24.808594c-.820312 0-1.488281-.664062-1.488281-1.488281 0-.820313.667969-1.488281 1.488281-1.488281zm0 0" fill="url(#l)"/><path d="m11.410156 17.367188c-.824218 0-1.488281.664062-1.488281 1.488281 0 .128906.015625.253906.046875.371093.164062-.640624.746094-1.113281 1.441406-1.113281h24.808594c.695312 0 1.277344.472657 1.441406 1.113281.03125-.117187.046875-.242187.046875-.371093 0-.824219-.664062-1.488281-1.488281-1.488281zm0 0" fill="#fff" fill-opacity=".392157"/><path d="m11.410156 21.089844c-.824218 0-1.488281-.664063-1.488281-1.488282 0-.128906.015625-.253906.046875-.375.164062.644532.746094 1.117188 1.441406 1.117188h24.808594c.695312 0 1.277344-.472656 1.441406-1.117188.03125.121094.046875.246094.046875.375 0 .824219-.664062 1.488282-1.488281 1.488282zm0 0" fill-opacity=".235294"/><path d="m121.696712-105.173939h264.599732c8.749164 0 15.873484 7.12432 15.873484 15.873484 0 8.790828-7.12432 15.873485-15.873484 15.873485h-264.599732c-8.749165 0-15.873484-7.082657-15.873484-15.873485 0-8.749164 7.124319-15.873484 15.873484-15.873484zm0 0" fill="none" stroke="#212121" stroke-linecap="round" stroke-linejoin="round" stroke-width="3" transform="matrix(.093759 0 0 .093759 0 27.228186)"/><path d="m11.410156 24.3125h24.808594c.820312 0 1.488281.667969 1.488281 1.488281 0 .824219-.667969 1.488281-1.488281 1.488281h-24.808594c-.820312 0-1.488281-.664062-1.488281-1.488281 0-.820312.667969-1.488281 1.488281-1.488281zm0 0" fill="url(#m)"/><path d="m11.410156 24.3125c-.824218 0-1.488281.664062-1.488281 1.488281 0 .128907.015625.253907.046875.375.164062-.644531.746094-1.117187 1.441406-1.117187h24.808594c.695312 0 1.277344.472656 1.441406 1.117187.03125-.121093.046875-.246093.046875-.375 0-.824219-.664062-1.488281-1.488281-1.488281zm0 0" fill="#fff" fill-opacity=".392157"/><path d="m11.410156 28.035156c-.824218 0-1.488281-.664062-1.488281-1.488281 0-.128906.015625-.253906.046875-.371094.164062.640625.746094 1.113281 1.441406 1.113281h24.808594c.695312 0 1.277344-.472656 1.441406-1.113281.03125.117188.046875.242188.046875.371094 0 .824219-.664062 1.488281-1.488281 1.488281zm0 0" fill-opacity=".235294"/><path d="m121.696712-105.181252h264.599732c8.749164 0 15.873484 7.12432 15.873484 15.873484 0 8.790828-7.12432 15.873485-15.873484 15.873485h-264.599732c-8.749165 0-15.873484-7.082657-15.873484-15.873485 0-8.749164 7.124319-15.873484 15.873484-15.873484zm0 0" fill="none" stroke="#212121" stroke-linecap="round" stroke-linejoin="round" stroke-width="3" transform="matrix(.093759 0 0 .093759 0 34.174184)"/></svg>

<?xml version="1.0" encoding="UTF-8"?>
<svg xmlns="http://www.w3.org/2000/svg" xmlns:xlink="http://www.w3.org/1999/xlink" width="48px" height="48px" viewBox="0 0 48 48" version="1.1">
<defs>
<radialGradient id="radial0" gradientUnits="userSpaceOnUse" cx="450.908936" cy="189.579361" fx="450.908936" fy="189.579361" r="21.166656" gradientTransform="matrix(-0.000000156753,-0.117199,0.126575,-0.000000152308,-15.26378,97.377562)">
<stop offset="0" style="stop-color:rgb(0%,0%,0%);stop-opacity:0.313726;"/>
<stop offset="0.222222" style="stop-color:rgb(0%,0%,0%);stop-opacity:0.27451;"/>
<stop offset="1" style="stop-color:rgb(0%,0%,0%);stop-opacity:0;"/>
</radialGradient>
<radialGradient id="radial1" gradientUnits="userSpaceOnUse" cx="450.908936" cy="189.579361" fx="450.908936" fy="189.579361" r="21.166656" gradientTransform="matrix(0.000000156753,0.117199,-0.126575,0.000000152308,33.323307,-9.306655)">
<stop offset="0" style="stop-color:rgb(0%,0%,0%);stop-opacity:0.313726;"/>
<stop offset="0.222222" style="stop-color:rgb(0%,0%,0%);stop-opacity:0.27451;"/>
<stop offset="1" style="stop-color:rgb(0%,0%,0%);stop-opacity:0;"/>
</radialGradient>
<radialGradient id="radial2" gradientUnits="userSpaceOnUse" cx="450.908936" cy="189.579361" fx="450.908936" fy="189.579361" r="21.166656" gradientTransform="matrix(0.000000156753,-0.117199,-0.126575,-0.000000152308,33.323307,97.377562)">
<stop offset="0" style="stop-color:rgb(0%,0%,0%);stop-opacity:0.313726;"/>
<stop offset="0.222222" style="stop-color:rgb(0%,0%,0%);stop-opacity:0.27451;"/>
<stop offset="1" style="stop-color:rgb(0%,0%,0%);stop-opacity:0;"/>
</radialGradient>
<radialGradient id="radial3" gradientUnits="userSpaceOnUse" cx="450.908936" cy="189.579361" fx="450.908936" fy="189.579361" r="21.166656" gradientTransform="matrix(-0.000000156753,0.117199,0.126575,0.000000152308,-15.263778,-9.306656)">
<stop offset="0" style="stop-color:rgb(0%,0%,0%);stop-opacity:0.313726;"/>
<stop offset="0.222222" style="stop-color:rgb(0%,0%,0%);stop-opacity:0.27451;"/>
<stop offset="1" style="stop-color:rgb(0%,0%,0%);stop-opacity:0;"/>
</radialGradient>
<linearGradient id="linear0" gradientUnits="userSpaceOnUse" x1="255.323059" y1="233.5" x2="255.323044" y2="254.666656" gradientTransform="matrix(-0.00331698,0,0,0.093759,10.458352,22.142743)">
<stop offset="0" style="stop-color:rgb(0%,0%,0%);stop-opacity:0.27451;"/>
<stop offset="1" style="stop-color:rgb(0%,0%,0%);stop-opacity:0;"/>
</linearGradient>
<linearGradient id="linear1" gradientUnits="userSpaceOnUse" x1="370.416656" y1="254.666672" x2="370.416656" y2="-168.666656" gradientTransform="matrix(1,0,0,1,0.000000000000056843,0)">
<stop offset="0" style="stop-color:rgb(25.882354%,25.882354%,25.882354%);stop-opacity:1;"/>
<stop offset="1" style="stop-color:rgb(38.039216%,38.039216%,38.039216%);stop-opacity:1;"/>
</linearGradient>
<linearGradient id="linear2" gradientUnits="userSpaceOnUse" x1="254" y1="254.666672" x2="254" y2="-168.666672" gradientTransform="matrix(0.093759,0,0,0.093759,0,20.158175)">
<stop offset="0" style="stop-color:rgb(25.882354%,25.882354%,25.882354%);stop-opacity:1;"/>
<stop offset="1" style="stop-color:rgb(38.039216%,38.039216%,38.039216%);stop-opacity:1;"/>
</linearGradient>
<linearGradient id="linear3" gradientUnits="userSpaceOnUse" x1="254" y1="-73.416664" x2="254" y2="-105.166656" gradientTransform="matrix(0.093759,0,0,0.093759,0,20.158175)">
<stop offset="0" style="stop-color:rgb(25.882354%,64.705884%,96.078432%);stop-opacity:1;"/>
<stop offset="1" style="stop-color:rgb(39.215687%,70.980394%,96.470588%);stop-opacity:1;"/>
</linearGradient>
<linearGradient id="linear4" gradientUnits="userSpaceOnUse" x1="254" y1="-73.416664" x2="254" y2="-105.166656" gradientTransform="matrix(0.093759,0,0,0.093759,0,27.228186)">
<stop offset="0" style="stop-color:rgb(25.882354%,64.705884%,96.078432%);stop-opacity:1;"/>
<stop offset="1" style="stop-color:rgb(39.215687%,70.980394%,96.470588%);stop-opacity:1;"/>
</linearGradient>
<linearGradient id="linear5" gradientUnits="userSpaceOnUse" x1="254" y1="-73.416664" x2="254" y2="-105.166656" gradientTransform="matrix(0.093759,0,0,0.093759,0,34.174184)">
<stop offset="0" style="stop-color:rgb(25.882354%,64.705884%,96.078432%);stop-opacity:1;"/>
<stop offset="1" style="stop-color:rgb(39.215687%,70.980394%,96.470588%);stop-opacity:1;"/>
</linearGradient>
</defs>
<g id="surface1">
<path style=" stroke:none;fill-rule:nonzero;fill:url(#radial0);" d="M 8.433594 44.035156 L 6.054688 44.035156 L 6.054688 42.050781 L 8.433594 42.050781 Z M 8.433594 44.035156 "/>
<path style=" stroke:none;fill-rule:nonzero;fill:url(#radial1);" d="M 9.625 44.035156 L 12.007812 44.035156 L 12.007812 46.019531 L 9.625 46.019531 Z M 9.625 44.035156 "/>
<path style=" stroke:none;fill-rule:nonzero;fill:url(#radial2);" d="M 9.625 44.035156 L 12.007812 44.035156 L 12.007812 42.050781 L 9.625 42.050781 Z M 9.625 44.035156 "/>
<path style=" stroke:none;fill-rule:nonzero;fill:url(#radial3);" d="M 8.433594 44.035156 L 6.054688 44.035156 L 6.054688 46.019531 L 8.433594 46.019531 Z M 8.433594 44.035156 "/>
<path style=" stroke:none;fill-rule:nonzero;fill:url(#linear0);" d="M 9.625 44.035156 L 8.433594 44.035156 L 8.433594 46.019531 L 9.625 46.019531 Z M 9.625 44.035156 "/>
<path style="fill-rule:nonzero;fill:url(#linear1);stroke-width:3;stroke-linecap:round;stroke-linejoin:round;stroke:rgb(12.941177%,12.941177%,12.941177%);stroke-opacity:1;stroke-miterlimit:4;" d="M 306.935867 138.341258 C 297.311786 138.341258 292.728891 150.215124 299.894873 156.631178 L 405.718101 251.872083 C 412.467456 257.954835 423.258092 253.163626 423.258092 244.08116 L 423.258092 148.840255 C 423.258092 143.049141 418.550209 138.341258 412.759095 138.341258 Z M 306.935867 138.341258 " transform="matrix(-0.093759,0,0,0.093759,47.629548,20.158175)"/>
<path style=" stroke:none;fill-rule:nonzero;fill:rgb(0%,0%,0%);fill-opacity:0.235294;" d="M 19.753906 33.714844 C 19.914062 34.078125 19.859375 34.53125 19.511719 34.84375 L 9.589844 43.773438 C 8.957031 44.34375 7.945312 43.894531 7.945312 43.042969 L 7.945312 42.242188 C 7.945312 43.09375 8.957031 43.542969 9.589844 42.972656 L 19.511719 34.042969 C 19.621094 33.945312 19.699219 33.832031 19.753906 33.714844 Z M 19.753906 33.714844 "/>
<path style=" stroke:none;fill-rule:nonzero;fill:rgb(0%,0%,0%);fill-opacity:0.235294;" d="M 18.113281 36.097656 L 17.285156 36.839844 L 7.9375 36.839844 L 7.9375 36.097656 Z M 18.113281 36.097656 "/>
<path style=" stroke:none;fill-rule:nonzero;fill:url(#linear2);" d="M 6.945312 4.34375 L 40.683594 4.34375 C 42.328125 4.34375 43.660156 5.675781 43.660156 7.320312 L 43.660156 33.121094 C 43.660156 34.765625 42.328125 36.097656 40.683594 36.097656 L 6.945312 36.097656 C 5.300781 36.097656 3.96875 34.765625 3.96875 33.121094 L 3.96875 7.320312 C 3.96875 5.675781 5.300781 4.34375 6.945312 4.34375 Z M 6.945312 4.34375 "/>
<path style=" stroke:none;fill-rule:nonzero;fill:rgb(100%,100%,100%);fill-opacity:0.313726;" d="M 6.945312 4.378906 C 5.296875 4.378906 3.96875 5.707031 3.96875 7.355469 L 3.96875 7.835938 C 3.96875 6.183594 5.296875 4.859375 6.945312 4.859375 L 40.683594 4.859375 C 42.332031 4.859375 43.660156 6.183594 43.660156 7.835938 L 43.660156 7.355469 C 43.660156 5.707031 42.332031 4.378906 40.683594 4.378906 Z M 6.945312 4.378906 "/>
<path style=" stroke:none;fill-rule:nonzero;fill:rgb(0%,0%,0%);fill-opacity:0.235294;" d="M 3.96875 32.707031 L 3.96875 33.121094 C 3.96875 34.769531 5.296875 36.097656 6.945312 36.097656 L 40.683594 36.097656 C 42.332031 36.097656 43.660156 34.769531 43.660156 33.121094 L 43.660156 32.707031 C 43.660156 34.355469 42.332031 35.683594 40.683594 35.683594 L 6.945312 35.683594 C 5.296875 35.683594 3.96875 34.355469 3.96875 32.707031 Z M 3.96875 32.707031 "/>
<path style="fill:none;stroke-width:3;stroke-linecap:round;stroke-linejoin:round;stroke:rgb(12.941177%,12.941177%,12.941177%);stroke-opacity:1;stroke-miterlimit:4;" d="M 74.076259 -168.671091 L 433.916896 -168.671091 C 451.456888 -168.671091 465.663865 -154.464114 465.663865 -136.924123 L 465.663865 138.257932 C 465.663865 155.797924 451.456888 170.004901 433.916896 170.004901 L 74.076259 170.004901 C 56.536268 170.004901 42.329291 155.797924 42.329291 138.257932 L 42.329291 -136.924123 C 42.329291 -154.464114 56.536268 -168.671091 74.076259 -168.671091 Z M 74.076259 -168.671091 " transform="matrix(0.093759,0,0,0.093759,0,20.158175)"/>
<path style=" stroke:none;fill-rule:nonzero;fill:url(#linear3);" d="M 11.410156 10.296875 L 36.21875 10.296875 C 37.039062 10.296875 37.707031 10.964844 37.707031 11.785156 C 37.707031 12.609375 37.039062 13.273438 36.21875 13.273438 L 11.410156 13.273438 C 10.589844 13.273438 9.921875 12.609375 9.921875 11.785156 C 9.921875 10.964844 10.589844 10.296875 11.410156 10.296875 Z M 11.410156 10.296875 "/>
<path style=" stroke:none;fill-rule:nonzero;fill:rgb(100%,100%,100%);fill-opacity:0.392157;" d="M 11.410156 10.296875 C 10.585938 10.296875 9.921875 10.960938 9.921875 11.785156 C 9.921875 11.914062 9.9375 12.039062 9.96875 12.160156 C 10.132812 11.515625 10.714844 11.042969 11.410156 11.042969 L 36.21875 11.042969 C 36.914062 11.042969 37.496094 11.515625 37.660156 12.160156 C 37.691406 12.039062 37.707031 11.914062 37.707031 11.785156 C 37.707031 10.960938 37.042969 10.296875 36.21875 10.296875 Z M 11.410156 10.296875 "/>
<path style=" stroke:none;fill-rule:nonzero;fill:rgb(0%,0%,0%);fill-opacity:0.235294;" d="M 11.410156 14.019531 C 10.585938 14.019531 9.921875 13.355469 9.921875 12.53125 C 9.921875 12.402344 9.9375 12.277344 9.96875 12.160156 C 10.132812 12.800781 10.714844 13.273438 11.410156 13.273438 L 36.21875 13.273438 C 36.914062 13.273438 37.496094 12.800781 37.660156 12.160156 C 37.691406 12.277344 37.707031 12.402344 37.707031 12.53125 C 37.707031 13.355469 37.042969 14.019531 36.21875 14.019531 Z M 11.410156 14.019531 "/>
<path style="fill:none;stroke-width:3;stroke-linecap:round;stroke-linejoin:round;stroke:rgb(12.941177%,12.941177%,12.941177%);stroke-opacity:1;stroke-miterlimit:4;" d="M 121.696712 -105.177154 L 386.296444 -105.177154 C 395.045608 -105.177154 402.169928 -98.052835 402.169928 -89.30367 C 402.169928 -80.512843 395.045608 -73.430186 386.296444 -73.430186 L 121.696712 -73.430186 C 112.947547 -73.430186 105.823228 -80.512843 105.823228 -89.30367 C 105.823228 -98.052835 112.947547 -105.177154 121.696712 -105.177154 Z M 121.696712 -105.177154 " transform="matrix(0.093759,0,0,0.093759,0,20.158175)"/>
<path style=" stroke:none;fill-rule:nonzero;fill:url(#linear4);" d="M 11.410156 17.367188 L 36.21875 17.367188 C 37.039062 17.367188 37.707031 18.035156 37.707031 18.855469 C 37.707031 19.679688 37.039062 20.34375 36.21875 20.34375 L 11.410156 20.34375 C 10.589844 20.34375 9.921875 19.679688 9.921875 18.855469 C 9.921875 18.035156 10.589844 17.367188 11.410156 17.367188 Z M 11.410156 17.367188 "/>
<path style=" stroke:none;fill-rule:nonzero;fill:rgb(100%,100%,100%);fill-opacity:0.392157;" d="M 11.410156 17.367188 C 10.585938 17.367188 9.921875 18.03125 9.921875 18.855469 C 9.921875 18.984375 9.9375 19.109375 9.96875 19.226562 C 10.132812 18.585938 10.714844 18.113281 11.410156 18.113281 L 36.21875 18.113281 C 36.914062 18.113281 37.496094 18.585938 37.660156 19.226562 C 37.691406 19.109375 37.707031 18.984375 37.707031 18.855469 C 37.707031 18.03125 37.042969 17.367188 36.21875 17.367188 Z M 11.410156 17.367188 "/>
<path style=" stroke:none;fill-rule:nonzero;fill:rgb(0%,0%,0%);fill-opacity:0.235294;" d="M 11.410156 21.089844 C 10.585938 21.089844 9.921875 20.425781 9.921875 19.601562 C 9.921875 19.472656 9.9375 19.347656 9.96875 19.226562 C 10.132812 19.871094 10.714844 20.34375 11.410156 20.34375 L 36.21875 20.34375 C 36.914062 20.34375 37.496094 19.871094 37.660156 19.226562 C 37.691406 19.347656 37.707031 19.472656 37.707031 19.601562 C 37.707031 20.425781 37.042969 21.089844 36.21875 21.089844 Z M 11.410156 21.089844 "/>
<path style="fill:none;stroke-width:3;stroke-linecap:round;stroke-linejoin:round;stroke:rgb(12.941177%,12.941177%,12.941177%);stroke-opacity:1;stroke-miterlimit:4;" d="M 121.696712 -105.173939 L 386.296444 -105.173939 C 395.045608 -105.173939 402.169928 -98.049619 402.169928 -89.300455 C 402.169928 -80.509627 395.045608 -73.42697 386.296444 -73.42697 L 121.696712 -73.42697 C 112.947547 -73.42697 105.823228 -80.509627 105.823228 -89.300455 C 105.823228 -98.049619 112.947547 -105.173939 121.696712 -105.173939 Z M 121.696712 -105.173939 " transform="matrix(0.093759,0,0,0.093759,0,27.228186)"/>
<path style=" stroke:none;fill-rule:nonzero;fill:url(#linear5);" d="M 11.410156 24.3125 L 36.21875 24.3125 C 37.039062 24.3125 37.707031 24.980469 37.707031 25.800781 C 37.707031 26.625 37.039062 27.289062 36.21875 27.289062 L 11.410156 27.289062 C 10.589844 27.289062 9.921875 26.625 9.921875 25.800781 C 9.921875 24.980469 10.589844 24.3125 11.410156 24.3125 Z M 11.410156 24.3125 "/>
<path style=" stroke:none;fill-rule:nonzero;fill:rgb(100%,100%,100%);fill-opacity:0.392157;" d="M 11.410156 24.3125 C 10.585938 24.3125 9.921875 24.976562 9.921875 25.800781 C 9.921875 25.929688 9.9375 26.054688 9.96875 26.175781 C 10.132812 25.53125 10.714844 25.058594 11.410156 25.058594 L 36.21875 25.058594 C 36.914062 25.058594 37.496094 25.53125 37.660156 26.175781 C 37.691406 26.054688 37.707031 25.929688 37.707031 25.800781 C 37.707031 24.976562 37.042969 24.3125 36.21875 24.3125 Z M 11.410156 24.3125 "/>
<path style=" stroke:none;fill-rule:nonzero;fill:rgb(0%,0%,0%);fill-opacity:0.235294;" d="M 11.410156 28.035156 C 10.585938 28.035156 9.921875 27.371094 9.921875 26.546875 C 9.921875 26.417969 9.9375 26.292969 9.96875 26.175781 C 10.132812 26.816406 10.714844 27.289062 11.410156 27.289062 L 36.21875 27.289062 C 36.914062 27.289062 37.496094 26.816406 37.660156 26.175781 C 37.691406 26.292969 37.707031 26.417969 37.707031 26.546875 C 37.707031 27.371094 37.042969 28.035156 36.21875 28.035156 Z M 11.410156 28.035156 "/>
<path style="fill:none;stroke-width:3;stroke-linecap:round;stroke-linejoin:round;stroke:rgb(12.941177%,12.941177%,12.941177%);stroke-opacity:1;stroke-miterlimit:4;" d="M 121.696712 -105.181252 L 386.296444 -105.181252 C 395.045608 -105.181252 402.169928 -98.056932 402.169928 -89.307768 C 402.169928 -80.51694 395.045608 -73.434283 386.296444 -73.434283 L 121.696712 -73.434283 C 112.947547 -73.434283 105.823228 -80.51694 105.823228 -89.307768 C 105.823228 -98.056932 112.947547 -105.181252 121.696712 -105.181252 Z M 121.696712 -105.181252 " transform="matrix(0.093759,0,0,0.093759,0,34.174184)"/>
</g>
</svg>
